svg/Outline/archive.svg

<svg viewBox="0 0 24 24" xmlns="http://www.w3.org/2000/svg" width="24" height="24"><path d="M12 9.53a.9.9 0 0 1 .9.81v4.49l1.76-1.76.07-.07A.9.9 0 0 1 16 14.27l-.07.07-3.3 3.3a.9.9 0 0 1-1.27 0l-3.3-3.3a.9.9 0 0 1 1.28-1.27l1.76 1.76v-4.49a.9.9 0 0 1 .9-.8"/><path fill-rule="evenodd" d="M15.63 2.58c.96 0 1.87.4 2.52 1.1l1.9 2.08c.58.63.9 1.46.9 2.31v8.78c0 2.35-1.9 4.26-4.26 4.26H7.31a4.26 4.26 0 0 1-4.26-4.26V8.07a3.4 3.4 0 0 1 .87-2.29l.03-.02 1.9-2.08c.65-.7 1.56-1.1 2.52-1.1zm-10.6 4.7q-.2.38-.2.8v8.77a2.5 2.5 0 0 0 2.48 2.48h9.38a2.5 2.5 0 0 0 2.48-2.48V8.07q0-.41-.2-.78zm3.34-2.92c-.46 0-.9.19-1.2.53l-.57.62h10.8l-.56-.62a1.6 1.6 0 0 0-1.2-.53z" clip-rule="evenodd"/></svg>

<svg viewBox="0 0 24 24" xmlns="http://www.w3.org/2000/svg" width="24" height="24"><path d="M12 9.53A.9 .9 0 0 1 12.9 10.34L12.9 14.83L14.73 13A.9 .9 0 0 1 16 14.27L12.63 17.64A.9 .9 0 0 1 11.36 17.64L8.06 14.34A.9 .9 0 0 1 9.34 13.07L11.1 14.83L11.1 10.34A.9 .9 0 0 1 12 9.54"/><path fill-rule="evenodd" d="M15.63 2.58C16.59 2.58 17.5 2.98 18.15 3.68L20.05 5.76C20.63 6.39 20.95 7.22 20.95 8.07L20.95 16.85C20.95 19.2 19.05 21.11 16.69 21.11L7.31 21.11A4.26 4.26 0 0 1 3.05 16.85L3.05 8.07A3.4 3.4 0 0 1 3.92 5.78L5.85 3.68C6.5 2.98 7.41 2.58 8.37 2.58ZM5.03 7.28q-.2.38-.2.8v8.77a2.5 2.5 0 0 0 2.48 2.48h9.38a2.5 2.5 0 0 0 2.48-2.48V8.07q0-.41-.2-.78zm3.34-2.92c-.46 0-.9.19-1.2.53l-.57.62h10.8l-.56-.62a1.6 1.6 0 0 0-1.2-.53z" clip-rule="evenodd"/></svg>
